src/img/star.svg

<?xml version="1.0" encoding="UTF-8" standalone="no"?>
<!-- Created with Inkscape (http://www.inkscape.org/) -->

<svg
   width="500"
   height="500"
   viewBox="0 0 132.29166 132.29167"
   version="1.1"
   id="svg5"
   xmlns="http://www.w3.org/2000/svg"
   >
  <defs
     id="defs2">
    <clipPath
       clipPathUnits="userSpaceOnUse"
       id="clipPath230">
      <path
         style="fill:none;stroke:#d10000;stroke-width:0.146;stroke-dasharray:0.146, 0.146"
         d="m 75.826988,152.31106 -29.699998,-21.4208 36.139382,-1.05132 0.394248,-0.26284 4.07389,-12.22168 7.096461,-22.340706 12.221679,34.299556 36.53363,0.13142 -29.17433,22.47212 11.95884,35.08806 -30.488492,-21.02655 -29.568582,21.42079 z"
         id="path232" />
    </clipPath>
  </defs>
  <g
     id="layer1"
     clip-path="url(#clipPath230)"
     transform="matrix(1.3651227,0,0,1.4324324,-61.620022,-135.70382)">
    <path
       id="path295"
       style="fill:#1b4650;fill-opacity:1;stroke:#d10000;stroke-width:0.146;stroke-dasharray:0.146, 0.146"
       d="m 93.899695,94.992651 -11.196216,34.957039 -36.695435,0.88418 29.786296,21.45037 -10.498584,35.17253 29.604911,-21.69996 30.207463,20.85402 -11.48974,-34.86195 29.16773,-22.28443 -36.70629,0.15451 z m -0.06873,34.846449 a 14.981416,16.426991 0 0 1 14.981515,16.42691 14.981416,16.426991 0 0 1 -14.981515,16.4269 14.981416,16.426991 0 0 1 -14.981514,-16.4269 14.981416,16.426991 0 0 1 14.981514,-16.42691 z" />
  </g>
</svg>

<?xml version="1.0" encoding="UTF-8" standalone="no"?>
<!-- Created with Inkscape (http://www.inkscape.org/) -->

<svg
   width="210mm"
   height="297mm"
   viewBox="0 0 210 297"
   version="1.1"
   id="svg5"
   xmlns="http://www.w3.org/2000/svg"
   xmlns:svg="http://www.w3.org/2000/svg">
  <defs
     id="defs2" />
  <g
     id="layer1">
    <path
       id="path295"
       style="fill:#1b4650;stroke:#d10000;stroke-width:0.146;stroke-dasharray:0.146, 0.146;fill-opacity:1"
       d="M 93.899695 94.992651 L 82.703479 129.94969 L 46.008044 130.83387 L 75.79434 152.28424 L 65.295756 187.45677 L 94.900667 165.75681 L 125.10813 186.61083 L 113.61839 151.74888 L 142.78612 129.46445 L 106.07983 129.61896 L 93.899695 94.992651 z M 93.830965 129.8391 A 14.981416 16.426991 0 0 1 108.81248 146.26601 A 14.981416 16.426991 0 0 1 93.830965 162.69291 A 14.981416 16.426991 0 0 1 78.849451 146.26601 A 14.981416 16.426991 0 0 1 93.830965 129.8391 z " />
  </g>
</svg>
